!!!COM: Bach, Johann Sebastian
!!!CDT: 1685/3//-1750/7/28/
!!!OTL@@DE: Der Tag, der ist so freudenreich
!!!OTL@EN: This day is so joyful
!!!AGN: 4-Part Chorale
!!!SCT: BH 158
!!!SCT: BWV 294
**harm	**root	**kern	**kern	**kern	**kern
!	!	!bass	!tenor	!alto	!soprno
*	*Iorgan	*Iorgan	*Iorgan	*Iorgan	*Iorgan
*k[b-e-]	*k[b-e-]	*k[b-e-]	*k[b-e-]	*k[b-e-]	*k[b-e-]
*B-:	*B-:	*B-:	*B-:	*B-:	*B-:
*M4/4	*M4/4	*M4/4	*M4/4	*M4/4	*M4/4
*met(c)	*met(c)	*met(c)	*met(c)	*met(c)	*met(c)
*MM60	*MM60	*MM60	*MM60	*MM60	*MM60
*>[A,A,B]	*>[A,A,B]	*>[A,A,B]	*>[A,A,B]	*>[A,A,B]	*>[A,A,B]
*>A	*>A	*>A	*>A	*>A	*>A
I	4GG	8B-	4d	4f	4b-
.	.	8A	.	.	.
=1	=1	=1	=1	=1	=1
vi	4EE	8G	4d	4g	4b-
.	.	8F	.	.	.
IV	4CC	8E-	4e-	4.g	4b-
.	.	8D	.	.	.
ii	4AA	4C	4e-	.	4cc
.	.	.	.	8a	.
V7/IV	4GG	4BB-	8f	4b-	4dd
.	.	.	8a-	.	.
=2	=2	=2	=2	=2	=2
IV	4CC	4E-	4g	4.b-	8ee-
.	.	.	.	.	8dd
V	4DD	4F	8c	.	4cc
.	.	.	16f	8a	.
.	.	.	16e-	.	.
I;	2GG;	2BB-;	2d;	2f;	2b-;
=3	=3	=3	=3	=3	=3
V	4DD	4F	4f	4a	4cc
ii	8AA	8C	8e-	8g	4cc
vii7/IV	8BB	8D	[8d	8f	.
ii	4AA	4E-	8d]	[4g	4g
.	.	.	[8c	.	.
V	4DD	4F	8c]	8g]	4a
.	.	.	16d	16f	.
.	.	.	16c	16e-	.
=4	=4	=4	=4	=4	=4
vi	4EE	4G	4.B-	8d	4b-
.	.	.	.	8B-	.
V	4DD	4F	.	4f	4cc
.	.	.	8A	.	.
I;	4GG;	4BB-;	4d;	4f;	4b-;
=:|!	=:|!	=:|!	=:|!	=:|!	=:|!
*>B	*>B	*>B	*>B	*>B	*>B
I	4GG	4B-	4d	4f	4b-
=5	=5	=5	=5	=5	=5
V7b	4DD	4A	8c	4f	4ff
.	.	.	8e-	.	.
I	8GG	8B-	8d	8b-	4ff
Vb	8DD	8A	8c	8cc	.
vi	4EE	4G	4B-	8dd	4gg
.	.	.	.	8ee-	.
Vb	4DD	4A	4f	8dd	8ff
.	.	.	.	8cc	8ee-
!!linebreak: 3
=6	=6	=6	=6	=6	=6
I	4GG	8B-	4f	4b-	4dd
.	.	8A	.	.	.
viib/V	4CC#	4G	4g	4b-	4ee
V;	4DD;	4F;	4a;	4cc;	4ff;
Vb	4DD	4A	8f	4cc	4ff
.	.	.	8e-	.	.
=7	=7	=7	=7	=7	=7
I	4GG	8B-	8d	4b-	4ff
.	.	8c	8e-	.	.
Ib	4GG	8d	8f	4b-	4ff
.	.	8B-	8d	.	.
IV	4CC	4e-	8e-	4b-	4gg
.	.	.	8d	.	.
Vb	4DD	4A	8c	[4cc	8ff
.	.	.	8f	.	8ee-
=8	=8	=8	=8	=8	=8
I	4GG	4B-	4f	8cc]	4dd
.	.	.	.	4b-	.
V	4DD	4F	8.f	.	4cc
.	.	.	.	8a	.
.	.	.	16e-	.	.
I;	2GG;	2BB-;	2d;	2f;	2b-;
=9	=9	=9	=9	=9	=9
IV	4CC	8E-	4B-	4e-	4g
.	.	8D	.	.	.
viib	4FF#	4C	4c	4e-	4a
Ib	4GG	4D	8F	8f	4b-
.	.	.	4B-	4d	.
vii7/V	8CC#	4E	.	.	4g
Vb/V	8AA	.	16A	8c	.
.	.	.	16G	.	.
=10	=10	=10	=10	=10	=10
V	4DD	4F	4A	8c	4f
.	.	.	.	8d	.
V7/V	4AA	4C	8G	4c	4e
.	.	.	16A	.	.
.	.	.	16B-	.	.
V;	2DD;	2FF;	2A;	2c;	2f;
!!linebreak: 3
=11	=11	=11	=11	=11	=11
vi	4EE	8G	4d	4g	4b-
.	.	8F	.	.	.
IV	4CC	8E-	4e-	4g	4b-
.	.	8D	.	.	.
ii	8AA	4C	4e-	8g	4cc
viib	8FF#	.	.	8a	.
V7/IV	4GG	4BB-	8f	4b-	4dd
.	.	.	8a-	.	.
=12	=12	=12	=12	=12	=12
IV	4CC	4E-	4g	4.b-	8ee-
.	.	.	.	.	8dd
V	4DD	4F	8c	.	4cc
.	.	.	16f	8a	.
.	.	.	16e-	.	.
I;	2GG;	2BB-;	2d;	2f;	2b-;
=13	=13	=13	=13	=13	=13
V	4DD	8FF	8A	4f	4cc
.	.	8GG	8B-	.	.
Vb	4DD	8AA	4c	4f	4cc
.	.	8BB-	.	.	.
V/V	4AA	8C	4c	4e	4g
.	.	8BB-	.	.	.
Vb	4DD	4AA	4c	4f	4a
=14	=14	=14	=14	=14	=14
vi7b	4EE	4GG	4d	4f	8b-
.	.	.	.	.	8a
V/V	4AA	4C	8G	4e	4g
.	.	.	16c	.	.
.	.	.	16B-	.	.
V;	4DD;	4F;	4A;	4c;	4f;
V7b/IV	4GG	4D	4B-	4f	4a-
=15	=15	=15	=15	=15	=15
IV	4CC	4.E-	4B-	4e-	4g
IV	4CC	.	4G	4B-	4e-
.	.	8D	.	.	.
ii	4AA	4C	4c	4e-	4g
V	4DD	8F	4c	4f	4ay
.	.	8E-	.	.	.
=16	=16	=16	=16	=16	=16
Ib	4GG	8D	4B-	4.f	4b-
.	.	8BB-	.	.	.
V	4DD	4F	4A	.	4cc
.	.	.	.	8e-	.
I;	4GG;	4BB-;	4B-;	4d;	4b-;
==	==	==	==	==	==
*-	*-	*-	*-	*-	*-
!!!YOR: Ludwig Erk, Peters Editions of 1850, 1865; revised in light of
!!!YOR: Friedrich Smend, Peters Edition of 1932 & Albert Riemenschneider, 1941.
!!!RDT: 1987 September
!!!YER: 1995 March 1
!!chor2scor: -l 3 -s 0.6 -o %b.pmx
!!!ONB1: Text by Georg Niege; 16th Century secular melody, first appears 
!!!ONB2: in sacred use in Neu Catechismus-Gesangbüchlein, Hamburg, 1598. 
!!!YEC: Copyright 1994, David Huron
!!!YEN: United States of America
!!!SMA: 371 Bach Chorales, edited by Ludwig Erk, C.F. Peters
!!!PDT: 1850, 1865
